X:1
T:Robert van der Tuuk
C:Robert van der Tuuk
%%score { 1 | 2 }
L:1/8
Q:1/4=120
M:4/4
K:B
V:1 treble nm="Piano" snm="Pno."
V:2 bass 
V:1
|:"^\n" z8 | z8 | z8 | z8 :| B6 B2 | c6 c2 | A6 A2 | B6 B2 | B2 B2 B3 c | B2 A3 A A2 | B2 B2 B3 c | %11
 c2 A3 A B2 | B2 B2 B3 B | c2 c3 c c2 | A2 A2 A3 A | B2 B3 B B2 | B3 B A2 B2- | Bc c2 c3 c | %18
 A2 A3 A A2 | B4 B z BA | B3 B A2 B2- | Bc c2 c3 c | A3 A2 A z A | B6 B2 |[K:B] B,3 B, A,2 B,2- | %25
 B,C C2 C3 C | A,2 A,3 A, A,2 | B,4 B, z B,A, | B,3 B, A,2 B,2- | B,C C2 C3 C | A,3 A,2 A, z A, | %31
 B,6 B,2 |[K:B] B,3 D A,2 B,2- | B, C2 z A,3 C | A,2 A,3 A, A,2 | B,4 B, z B,A, | B,3 D A,2 B,2- | %37
 B, C2 z A,3 C | A,3 C2 B, z A, | B,6 B,2 | z8 | z8 | z8 | z8 |] %44
V:2
|:!ped! D,2 B,2 F,2 B,2!ped-up! |!ped! D,2 C2 F,2 C2!ped-up! |!ped! D,2 A,2 F,2 A,2!ped-up! | %3
!ped! D,2 B,2 F,2 B,2!ped-up! :|!ped! D,2 B,2 F,2 B,2!ped-up! |!ped! D,2 C2 F,2 C2!ped-up! | %6
!ped! D,2 A,2 F,2 A,2!ped-up! |!ped! D,2 B,2 F,2 B,2!ped-up! |!ped! B,,2 D,3 F, D,2!ped-up! | %9
!ped! B,,2 D,2 F,3 D,!ped-up! |!ped! B,,2 D,3 F, D,2!ped-up! |!ped! B,,2 D,2 F,3 D,!ped-up! | %12
!ped! D,2 B,3 F, B,2!ped-up! |!ped! D,2 C2 F,3 C!ped-up! |!ped! D,2 A,3 F, A,2!ped-up! | %15
!ped! D,2 B,2 F,3 B,!ped-up! |!ped! D,2 B,3 F, B,2!ped-up! |!ped! D,2 C2 F,3 C!ped-up! | %18
!ped! D,2 A,3 F, A,2!ped-up! |!ped! D,2 B,2 F,3 B,!ped-up! |!ped! D,2 B,3 F, B,2!ped-up! | %21
!ped! D,2 C2 F,3 C!ped-up! |!ped! D,2 A,3 F, A,2!ped-up! |!ped! D,2 B,2 F,3 B,!ped-up! | %24
[K:B]!ped! D,2 B,3 F, B,2!ped-up! |!ped! D,2 C2 F,3 C!ped-up! |!ped! D,2 A,3 F, A,2!ped-up! | %27
!ped! D,2 B,2 F,3 B,!ped-up! |!ped! D,2 B,3 F, B,2!ped-up! |!ped! D,2 C2 F,3 C!ped-up! | %30
!ped! D,2 A,3 F, A,2!ped-up! |!ped! D,2 B,2 F,3 B,!ped-up! |[K:B]!ped! D,2 B,,3 F, B,2!ped-up! | %33
!ped! D,2 C2 F,3 C,!ped-up! |!ped! D,2 A,3 F, A,2!ped-up! |!ped! D,2 B,,2 F,3 B,!ped-up! | %36
!ped! D,2 B,,3 F, B,2!ped-up! |!ped! D,2 C2 F,3 C,!ped-up! |!ped! D,2 A,3 F, A,2!ped-up! | %39
!ped! D,2 B,,2 F,4!ped-up! |!ped! D,2 B,2 F,2 B,2!ped-up! |!ped! D,2 C2 F,2 C2!ped-up! | %42
!ped! D,2 A,2 F,2 A,2!ped-up! |!ped! D,2 B,2 F,2 B,2!ped-up! |] %44

